X: 1
T: Kenderbeck QS
P: piffero secondo 1051
O: Greg Rice
R: quickstep, march, reel
F: http://ancients.sudburymuster.org/mus/ssp/pdf/garfieldF.pdf
Z: 2019 John Chambers <jc:trillian.mit.edu>
M: 2/4
L: 1/16
K: D
(ag) \
| (fa)gf (eg)fe | d2d2 d2ed \
| (ce)dc (Bd)cB | A2A2 A2BA \
| GBAG FAGF |
| EFGA Bcde \
| (fa)gf (eg)fe | d2d2 d2 :: AG \
| FAdA fdAF | EAcA ecAG |
| FAdf afba | gfed dcBA \
| FAdA fdAF | EAcA ecAG \
| FAdf (ag)ec | d2d2 d2 :|
